X:1
T:Cuttie's Wedding
T:Cutty's Wedding [2]
M:C
L:1/8
R:Strathspey
B:Milne – Middleton’s Selection of Strathspeys, Reels &c. for the Violin (1870, p. 4)
Z:AK/Fiddler’s Companion
K:Amin
A<A c2 (e/d/)c/B/ c2 |A<Ac>d eAc<e|A<A c2 (e/d/)c/B/ c2 |
G<G(B>G) (d>G)B<d:|c<(gg>a) g<c e2|c<(gg>a) g<ce<g|
c<(gg>a) g<c e2|G<G(B>G) (d>G)B<d|c<(gg>a) g<c e2|
c<(gg>a) gceg|afge fdec|d<GB>G d>GB<d||"Last"[C4A4]||

